!!!COM: Mozart, Wolfgang Amadeus
!!!OTL: String Quartet No. 7 in E-flat Major
!!!OMD: Un poco adagio
!!!OMV: 2
!!!SCT1: K<sup>1</sup> 160
!!!SCA: Chronologisch-thematisches Verzeichnis sämtlicher Tonwerke Wolfgang Amade Mozarts (L. von Köchel; 1862, 2/1905, 3/1937, 1947)
!!!SCT2: K<sup>6</sup> 159a
!!!YOR: Breitkopf & Härtel Edition
!!!ENC: Edmund Correia, Jr.
!!!CDT: 1756/1/27/-1791/12/5/
!!!OCY: Österreich
!!!YEC: Copyright (c) 1994, 2000 Center for Computer Assisted Research in the Humanities
!!!YEM: Rights to all derivative editions reserved.
!!!YEM: Refer to licensing agreement for further details.
!!!YEN: United States of America
**kern	**dynam	**kern	**dynam	**kern	**dynam	**kern	**dynam
*I:Violoncello	*I:Violoncello	*I:Viola	*I:Viola	*I:Violino 2	*I:Violino 2	*I:Violino 1	*I:Violino 1
*>[A,A,B,B]	*	*>[A,A,B,B]	*	*>[A,A,B,B]	*	*>[A,A,B,B]	*
*>A	*	*>A	*	*>A	*	*>A	*
*clefF4	*	*clefC3	*	*clefG2	*	*clefG2	*
*k[b-e-a-d-]	*	*k[b-e-a-d-]	*	*k[b-e-a-d-]	*	*k[b-e-a-d-]	*
*A-:	*	*A-:	*	*A-:	*	*A-:	*
*M3/4	*	*M3/4	*	*M3/4	*	*M3/4	*
! Un poco Adagio	!	! Un poco Adagio	!	! Un poco Adagio	!	! Un poco Adagio	!
(4F\xx	p	(4an\xx	p	(4cc\xx	p	(8.ee-\Lxx	p
.	.	.	.	.	.	16ff\Jk)	.
8BB-/)	.	8b-\)	.	8b-\)	.	8ddn\	.
8r	.	8r	.	8r	.	8r	.
4r	.	4r	.	4r	.	4r	.
=2	=2	=2	=2	=2	=2	=2	=2
(4E-\	.	(4g\	.	(4b-\	.	(8.dd-\L	.
.	.	.	.	.	.	16ee-\Jk)	.
8AA-/)	.	8a-\)	.	8a-/)	.	8cc\	.
8r	.	8r	.	8r	.	8r	.
4r	.	4r	.	4r	.	4r	.
=3	=3	=3	=3	=3	=3	=3	=3
(4D-\	.	(4d-\	.	(4f/	.	(8cc\L	.
.	.	.	.	.	.	16b-\Jk)	.
.	.	.	.	.	.	16r	.
4E-\	.	4c\	.	4e-/	.	(8b-/L	.
.	.	.	.	.	.	16a-/Jk)	.
.	.	.	.	.	.	16r	.
4En\)	.	4B-/)	.	4d-/)	.	(8a-/L	.
.	.	.	.	.	.	16g/Jk)	.
.	.	.	.	.	.	16r	.
=4	=4	=4	=4	=4	=4	=4	=4
4F\	.	4A-/	.	4c/	.	(8a-\L	.
.	.	.	.	.	.	8ff\J)	.
(4G\	fp	(4d-\	fp	(4B-/	fp	2ee-\	fp
4A-\)	.	4c\)	.	4c/)	.	.	.
=5	=5	=5	=5	=5	=5	=5	=5
4D-\	.	4F/	.	(8c/L	.	(8ee-\L	.
.	.	.	.	16B-/Jk)	.	16dd-\Jk)	.
.	.	.	.	16r	.	16r	.
4E-\	.	2E-/	.	(8B-/L	.	(8dd-\L	.
.	.	.	.	16A-/Jk)	.	16cc\Jk)	.
.	.	.	.	16r	.	16r	.
4EE-/	.	.	.	(8A-/L	.	(8cc\L	.
.	.	.	.	16G/Jk)	.	16b-\Jk)	.
.	.	.	.	16r	.	16r	.
=6	=6	=6	=6	=6	=6	=6	=6
4AA-/	.	8r	.	8A-/	.	[2.a-/	.
.	.	4A-/	.	4c/	.	.	.
4A-\	.	.	.	.	.	.	.
.	.	4c\	.	4e-/	.	.	.
4C/	.	.	.	.	.	.	.
.	.	[8e-\	.	[8g-/	.	.	.
=7	=7	=7	=7	=7	=7	=7	=7
4D-\	.	8e-\]	.	8g-/]	.	4a-/]	.
.	.	4d-\	.	4f/	.	.	.
4D-\	.	.	.	.	.	(4.aa-\	.
.	.	4f\	.	4d-/	.	.	.
4D-\	.	.	.	.	.	.	.
.	.	(16e-\LL	.	[8a-/	.	16gg\LL	.
.	.	16d-\JJ)	.	.	.	16ff\JJ)	.
=8	=8	=8	=8	=8	=8	=8	=8
!	!	! 16d-P/	!	!	!	! 16ffP/	!
4AA-/	.	(8cp/L	.	8a-/]	.	(8ee-p\L	.
.	.	16B-/L	.	4e-/	.	16dd-\L	.
.	.	16A-/JJ)	.	.	.	16cc\JJ)	.
!	!	!	!	!	!	! (16b-P/	!
4A-\	.	4c\	.	.	.	[2a-p/)	.
.	.	.	.	4A-/	.	.	.
4C/	.	[4e-\	.	.	.	.	.
.	.	.	.	[8g-/	.	.	.
=9	=9	=9	=9	=9	=9	=9	=9
4D-\	.	8e-\]	.	8g-/]	.	4a-/]	.
.	.	4d-\	.	4f/	.	.	.
4D-\	.	.	.	.	.	(4.aa-\	.
.	.	4f\	.	4d-/	.	.	.
4D-\	.	.	.	.	.	.	.
.	.	(16e-\LL	.	[8a-/	.	16gg\LL	.
.	.	16d-\JJ)	.	.	.	16ff\JJ)	.
=10	=10	=10	=10	=10	=10	=10	=10
!	!	! 16d-P/	!	!	!	! 16ffP/	!
4A-\	.	(8cp/L	.	(16a-/LL]	.	4ee-p\	.
.	.	.	.	16e-/	.	.	.
.	.	16B-/L	.	16d-/	.	.	.
.	.	16A-/JJ)	.	16c/JJ)	.	.	.
4AA-/	.	4A-/	.	4c/	.	(4.ee-\	.
4C/	.	[4c\	.	[4A-/	.	.	.
.	.	.	.	.	.	8een\)	.
=11	=11	=11	=11	=11	=11	=11	=11
4D-\	.	(8c/L]	.	(8A-/L]	.	(4een\	.
.	.	8A-/J)	.	8c/J)	.	.	.
4D-\	.	4A-/	.	(16d-'/LL	.	16ff\LL)	.
.	.	.	.	16e-'/	.	(16gg'\	.
.	.	.	.	16f'/	.	16aa-'\	.
.	.	.	.	16e-'/JJ	.	16gg'\JJ	.
4r	.	4r	.	16d-'/LL	.	16ff'\LL	.
.	.	.	.	16c'/	.	16ee-'\	.
.	.	.	.	16B-'/	.	16dd-'\	.
.	.	.	.	16A-'/JJ)	.	16cc'\JJ)	.
=12	=12	=12	=12	=12	=12	=12	=12
8r	.	8r	.	(8.A-T/L	.	(8.cct\L	.
(8E-\L	.	(8e-\L	.	.	.	.	.
.	.	.	.	32G/LL	.	32b-\LL	.
.	.	.	.	32A-/JJJ)	.	32cc\JJJ)	.
8Dn\	.	8dn\	.	4G/	.	4b-\	.
8E-\	.	8e-\	.	.	.	.	.
8F\	.	8f\	.	4r	.	4r	.
8G\J)	.	8g\J)	.	.	.	.	.
=13	=13	=13	=13	=13	=13	=13	=13
8AAn/Lxx	f	8c\Lxx	f	2.ee-\xx	f	[2.ff\xx	f
8AA/	.	8c\	.	.	.	.	.
8AA/	.	8c\	.	.	.	.	.
8AA/	.	8c\	.	.	.	.	.
8AA/	.	8c\	.	.	.	.	.
8AA/J	.	8c\J	.	.	.	.	.
=14	=14	=14	=14	=14	=14	=14	=14
8AA-/L	.	8B-/L	.	2ddn\	.	2ff\]	.
8AA-/	.	8B-/	.	.	.	.	.
8AA-/	.	8B-/	.	.	.	.	.
8AA-/	.	8B-/	.	.	.	.	.
8GG/	.	8B-/	.	4ee-\	.	4gg\	.
8GG/J	.	8B-/J	.	.	.	.	.
=15	=15	=15	=15	=15	=15	=15	=15
8FF/L	.	(8.f\L	.	(8.cc\L	.	(8.aa-\L	.
8AA-/	.	.	.	.	.	.	.
.	.	16c\Jk)	.	16a-\Jk)	.	16ff\Jk)	.
8BB-/	.	4B-/	.	4g/	.	4ee-\	.
8BB-/	.	.	.	.	.	.	.
8BB-/	.	4A-/	.	4f/	.	4ddn\	.
8BB-/J	.	.	.	.	.	.	.
=16	=16	=16	=16	=16	=16	=16	=16
2C/	.	(4A-/	.	(4f/	.	(4ddx\xx	.
.	.	4G/)	.	4e-/)	.	8ee-/L)	.
.	.	.	.	.	.	(8e-/	p
4C/	p	4c\	p	4e-/	p	8a-/	.
.	.	.	.	.	.	8cc/J)	.
=17	=17	=17	=17	=17	=17	=17	=17
(4Dn\	f	(4A-/	f	(4f/	f	(8.b-\L	f
.	.	.	.	.	.	16cc\Jk)	.
4E-\)	.	4G/)	.	4e-/)	.	8b-\	.
.	.	.	.	.	.	(8e-/L	p
4C/	p	4c\	p	4e-/	p	8a-/	.
.	.	.	.	.	.	8cc/J)	.
=18	=18	=18	=18	=18	=18	=18	=18
(4Dn\	f	(4A-/	f	(4f/	f	(8.b-\L	f
.	.	.	.	.	.	16cc\Jk)	.
4E-\)	.	4G/)	.	8e-/)	.	8b-\	.
.	.	.	.	(32e-/LLL	p	(32gg\LLL	p
.	.	.	.	32dn/	.	32ff\	.
.	.	.	.	32e-/	.	32gg\	.
.	.	.	.	32f/JJJ)	.	32aa-\JJJ)	.
4r	.	4r	.	16g'/LL	.	16bb-'\LL	.
.	.	.	.	16g'/	.	16bb-'\	.
.	.	.	.	16g'/	.	16bb-'\	.
.	.	.	.	16g'/JJ	.	16bb-'\JJ	.
=19	=19	=19	=19	=19	=19	=19	=19
2.E-\	p	2.e-\	p	(8g/L	.	(8bb-\L	.
.	.	.	.	8f/	.	8aa-\	.
.	.	.	.	8e-/	.	8gg\	.
.	.	.	.	8d-/	.	8ff\	.
.	.	.	.	8c/	.	8ee-\	.
.	.	.	.	8B-/J)	.	8dd-\J)	.
=20	=20	=20	=20	=20	=20	=20	=20
! cresc.	!	! cresc.	!	! cresc.	!	! cresc.	!
(8A-\L	.	(8e-\L	.	8A-/	.	(8cc/L	.
8B-\	.	8d-\	.	(4e-/	.	8b-/	.
8c\	.	8c\	.	.	.	8a-/	.
8B-\	.	8B-\	.	8d-/L	.	8g/	.
8A-\	.	8A-\	.	8c/	.	8f/	.
8G\J)	.	8d-\J)	.	8B-/J)	.	8en/J)	.
=21	=21	=21	=21	=21	=21	=21	=21
4A-\	f	(4c\	f	8c/L	f	8f\L	f
.	.	.	.	(16cc/L	.	(16aa-\L	.
.	.	.	.	16a-/JJ)	.	16ff\JJ)	.
4B-\	.	4B-/	.	4g/	.	4ee-\	.
4BB-/	.	4A-/)	.	4f/	.	4ddn\	.
=22	=22	=22	=22	=22	=22	=22	=22
[2E-\	.	(2A-/	.	(2f/	.	(2ddn\	.
8E-\]	.	8G/)	.	8e-/)	.	8ee-\)	.
8r	.	8r	.	8r	.	8r	.
=23:!!:	=23:!!:	=23:!!:	=23:!!:	=23:!!:	=23:!!:	=23:!!:	=23:!!:
*>B	*	*>B	*	*>B	*	*>B	*
8E-\L	p	8e-\L	p	(8.g/L	p	(8.b-/L	p
8E-\	.	8e-\	.	.	.	.	.
.	.	.	.	16e-/Jk)	.	16g/Jk)	.
8E-\	.	8e-\	.	(4G/	.	(4b-\	.
8E-\	.	8e-\	.	.	.	.	.
8E-\	.	8e-\	.	4A-/)	.	4cc\)	.
8E-\J	.	8e-\J	.	.	.	.	.
=24	=24	=24	=24	=24	=24	=24	=24
8EE-/L	fp	8E-/L	fp	(2An/	fp	(2cc\	fp
8EE-/	.	8E-/	.	.	.	.	.
8EE-/	.	8E-/	.	.	.	.	.
8EE-/	.	8E-/	.	.	.	.	.
8EE-/	.	8E-/	.	8B-/)	.	8dd-\)	.
8EE-/J	.	8E-/J	.	8r	.	8r	.
=25	=25	=25	=25	=25	=25	=25	=25
8AA-/L	.	8A-/L	.	(8.e-/L	p	(8.cc\L	p
8AA-/	.	8A-/	.	.	.	.	.
.	.	.	.	16c/Jk)	.	16a-\Jk)	.
8AA-/	.	8A-/	.	(4A-/	.	(4cc\	.
8AA-/	.	8A-/	.	.	.	.	.
8AA-/	.	8A-/	.	4B-/)	.	4dd-\)	.
8AA-/J	.	8A-/J	.	.	.	.	.
=26	=26	=26	=26	=26	=26	=26	=26
8AA-/L	fp	8A-/L	fp	(2Bn/	fp	(2ddn\	fp
8AA-/	.	8A-/	.	.	.	.	.
8AA-/	.	8A-/	.	.	.	.	.
8AA-/	.	8A-/	.	.	.	.	.
8AA-/	.	8A-/	.	8c/)	.	8ee-\)	.
8AA-/J	.	8A-/J	.	8r	.	8r	.
=27	=27	=27	=27	=27	=27	=27	=27
8C/L	.	8A-/L	.	4r	.	4r	.
8C/	.	8A-/	.	.	.	.	.
8C/	.	8A-/	.	4g-/	.	4ee-\	.
8C/	.	8A-/	.	.	.	.	.
8C/	.	8A-/	.	4g-/	.	4ee-\	.
8C/J	.	8A-/J	.	.	.	.	.
=28	=28	=28	=28	=28	=28	=28	=28
8D-\L	.	(2A-/	.	2f/	.	(4ee-\	.
8D-\	.	.	.	.	.	.	.
8D-\	.	.	.	.	.	4dd-\	.
8D-\	.	.	.	.	.	.	.
8D-\	.	4An/)	.	[4e-/	.	4cc\)	.
8D-\J	.	.	.	.	.	.	.
=29	=29	=29	=29	=29	=29	=29	=29
8D-\L	.	(4B-/	.	(4e-/]	.	(4cc\	.
8D-\	.	.	.	.	.	.	.
8D-\	.	4F/)	.	4d-/	.	4b-\	.
8D-\	.	.	.	.	.	.	.
8Dn\	.	4F'/	.	4c/)	.	4a-/)	.
8D\J	.	.	.	.	.	.	.
=30	=30	=30	=30	=30	=30	=30	=30
4E-\	.	4E-/	.	(8.ct/L	.	(8.a-T/L	.
.	.	.	.	32B-/LL	.	32g/LL	.
.	.	.	.	32c/JJJ)	.	32a-/JJJ)	.
4EE-/	.	4E-/	.	4B-/	.	4g/	.
4r	.	4r	.	4r	.	4r	.
=31	=31	=31	=31	=31	=31	=31	=31
(4An\	.	(4g-\	.	(4cc\	.	(8.ee-\L	.
.	.	.	.	.	.	16ff\Jk)	.
8B-\)	.	8f\)	.	8b-\)	.	8ddn'\	.
8r	.	8r	.	8r	.	8r	.
4r	.	4r	.	4r	.	4r	.
=32	=32	=32	=32	=32	=32	=32	=32
(4G\	.	[4e-\	.	(4b-\	.	(8.dd-\L	.
.	.	.	.	.	.	16ee-\Jk)	.
8A-\)	.	8e-\]	.	8a-/)	.	8cc'\	.
8r	.	8r	.	8r	.	8r	.
4r	.	4r	.	4r	.	4r	.
=33	=33	=33	=33	=33	=33	=33	=33
(4D-\	.	(4d-\	.	(4f/	.	(8cc\L	.
.	.	.	.	.	.	16b-\Jk)	.
.	.	.	.	.	.	16r	.
4E-\	.	4c\	.	4e-/	.	(8b-/L	.
.	.	.	.	.	.	16a-/Jk)	.
.	.	.	.	.	.	16r	.
4En\)	.	4B-/)	.	4d-/)	.	(8a-/L	.
.	.	.	.	.	.	16g/Jk)	.
.	.	.	.	.	.	16r	.
=34	=34	=34	=34	=34	=34	=34	=34
4F\	.	4A-/	.	4c/	.	(8a-\L	.
.	.	.	.	.	.	8ff\J)	.
(4G\	fp	(4d-\	fp	(4B-/	fp?	2ee-\	fp
!	!	!	!	!  Beginning of slur corrected by analogy with measure 4.	!	!	!
4A-\)	.	4c\)	.	4c/)	.	.	.
=35	=35	=35	=35	=35	=35	=35	=35
4D-\	.	4F/	.	(8c/L	.	(8ee-\L	.
.	.	.	.	16B-/Jk)	.	16dd-\Jk)	.
.	.	.	.	16r	.	16r	.
4E-\	.	2E-/	.	(8B-/L	.	(8dd-\L	.
.	.	.	.	16A-/Jk)	.	16cc\Jk)	.
.	.	.	.	16r	.	16r	.
4EE-/	.	.	.	(8A-/L	.	(8cc\L	.
.	.	.	.	16G/Jk)	.	16b-\Jk)	.
.	.	.	.	16r	.	16r	.
=36	=36	=36	=36	=36	=36	=36	=36
4AA-/	.	8r	.	8A-/	.	2a-/	.
.	.	4A-/	.	4c/	.	.	.
4C/	.	.	.	.	.	.	.
.	.	8c\	.	4e-/	.	.	.
4BB-/	.	8B-/L	.	.	.	4g-/	.
.	.	8B-/J	.	(8d-/	.	.	.
=37	=37	=37	=37	=37	=37	=37	=37
4AAn/	.	8An/	.	8c/)	.	[2.f/	.
.	.	4e-\	.	4c/	.	.	.
4FF/	.	.	.	.	.	.	.
.	.	4c/	.	4An/	.	.	.
4E-\	.	.	.	.	.	.	.
.	.	8A/	.	(8c/	.	.	.
=38	=38	=38	=38	=38	=38	=38	=38
4D-\	.	8B-/	.	8d-/)	.	4.f/]	.
.	.	4d-\	.	4f/	.	.	.
4BB-/	.	.	.	.	.	.	.
.	.	4B-\	.	4d-/	.	8ff\	.
!	!	!	!	!	!	! 16ee-P/	!
4B-\	.	.	.	.	.	(8dd-p\L	.
.	.	[8d-\	.	8f/	.	16cc\L	.
.	.	.	.	.	.	16b-\JJ)	.
=39	=39	=39	=39	=39	=39	=39	=39
!	!	!	!	!	!	! 16a-P/	!
4E-\	.	8d-\]	.	8B-/	.	(8gp/L	.
.	.	4B-/	.	4d-/	.	16f/L	.
.	.	.	.	.	.	16e-/JJ)	.
4D-\	.	.	.	.	.	2e-/	.
.	.	4G/	.	4B-/	.	.	.
4BB-/	.	.	.	.	.	.	.
.	.	8d-\	.	8G/	.	.	.
=40	=40	=40	=40	=40	=40	=40	=40
4AA-/	.	8c\	.	8A-/	.	4.e-/	.
.	.	4c\	.	4e-/	.	.	.
4C/	.	.	.	.	.	.	.
.	.	4A-/	.	4c/	.	8ee-\	.
!	!	!	!	!	!	! 16dd-P/	!
4AA-/	.	.	.	.	.	(8ccp\L	.
.	.	8c\	.	8e-/	.	16b-\L	.
.	.	.	.	.	.	16a-\JJ)	.
=41	=41	=41	=41	=41	=41	=41	=41
4D-\	.	(4c\	.	[4a-/	.	(4een\	.
4D-\	.	8d-\)	.	16a-/LL]	.	16ff\LL)	.
.	.	.	.	(16g'/	.	(16gg'\	.
.	.	8r	.	16f'/	.	16aa-'\	.
.	.	.	.	16e-'/JJ	.	16gg'\JJ	.
4r	.	4r	.	16d-'/LL	.	16ff'\LL	.
.	.	.	.	16c'/	.	16ee-'\	.
.	.	.	.	16B-'/	.	16dd-'\	.
.	.	.	.	16A-'/JJ)	.	16cc'\JJ)	.
=42	=42	=42	=42	=42	=42	=42	=42
8r	.	8r	.	(8.A-T/L	.	(8.cct\L	.
(8E-\L	.	(8e-\L	.	.	.	.	.
.	.	.	.	32G/LL	.	32b-\LL	.
.	.	.	.	32A-/JJJ)	.	32cc\JJJ)	.
8Dn\	.	8dn\	.	4G/	.	4b-\	.
8E-\	.	8e-\	.	.	.	.	.
8D-\	.	8d-\	.	4r	.	4r	.
8E-\J)	.	8e-\J)	.	.	.	.	.
=43	=43	=43	=43	=43	=43	=43	=43
8C/Lxx	f	8e-\Lxx	f	2.a-/xx	f	2.gg-\xx	f
8C/	.	8e-\	.	.	.	.	.
8C/	.	8e-\	.	.	.	.	.
8C/	.	8e-\	.	.	.	.	.
8C/	.	8e-\	.	.	.	.	.
8C/J	.	8e-\J	.	.	.	.	.
=44	=44	=44	=44	=44	=44	=44	=44
8D-\L	.	8d-\L	.	2.a-/	.	2.ff\	.
8D-\	.	8d-\	.	.	.	.	.
8D-\	.	8d-\	.	.	.	.	.
8D-\	.	8d-\	.	.	.	.	.
8D-\	.	8d-\	.	.	.	.	.
8D-\J	.	8d-\J	.	.	.	.	.
=45	=45	=45	=45	=45	=45	=45	=45
8AAn/L	.	8c\L	.	2.f/	.	2.ee-\	.
8AA/	.	8c\	.	.	.	.	.
8AA/	.	8c\	.	.	.	.	.
8AA/	.	8c\	.	.	.	.	.
8AA/	.	8c\	.	.	.	.	.
8AA/J	.	8c\J	.	.	.	.	.
=46	=46	=46	=46	=46	=46	=46	=46
8AA-/L	.	8B-/L	.	2.f/	.	2.ddn\	.
8AA-/	.	8B-/	.	.	.	.	.
8AA-/	.	8B-/	.	.	.	.	.
8AA-/	.	8B-/	.	.	.	.	.
8AA-/	.	8B-/	.	.	.	.	.
8AA-/J	.	8B-/J	.	.	.	.	.
=47	=47	=47	=47	=47	=47	=47	=47
8GG/L	.	(2B-/	.	(2e-/	.	2.dd-\	.
8GG/	.	.	.	.	.	.	.
8GG/	.	.	.	.	.	.	.
8GG/	.	.	.	.	.	.	.
8GG/	.	4e-\)	.	4b-\)	.	.	.
8GG/J	.	.	.	.	.	.	.
=48	=48	=48	=48	=48	=48	=48	=48
8AA-/L	.	(2e-\	.	(4a-/	.	(4cc\	.
8AA-/	.	.	.	.	.	.	.
8BB-/	.	.	.	4g/	.	4dd-\	.
8BB-/	.	.	.	.	.	.	.
8C/	.	4A-/)	.	4g-/)	.	4ee-\)	.
8C/J	.	.	.	.	.	.	.
=49	=49	=49	=49	=49	=49	=49	=49
!	!	!	!	! 16g-P/	!	! 16ee-P/	!
8D-/L	.	8r	.	(8fp/L	.	(8dd-p\L	.
8D-/	.	(8F/	.	16e-/L	.	16cc\L	.
.	.	.	.	16d-/JJ)	.	16b-\JJ)	.
8E-/	.	4E-/	.	(4c/	.	(4a-/	.
8EE-/	.	.	.	.	.	.	.
8EEn/	.	4D-/)	.	4B-/)	.	4g/)	.
8EE/J	.	.	.	.	.	.	.
=50	=50	=50	=50	=50	=50	=50	=50
2FF/	.	(4D-/	.	(4B-/	.	(4g/	.
.	.	8C/)	.	8A-/)	.	8a-/)	.
.	.	8r	.	8r	.	(8A-/L	p
4FF/	p	4F/	p	4A-/	p	8d-/	.
.	.	.	.	.	.	8f/J)	.
=51	=51	=51	=51	=51	=51	=51	=51
(4GG/	f	(4D-/	f	(4B-/	f	(8.e-/L	f
.	.	.	.	.	.	16f/Jk)	.
4AA-/)	.	4C/)	.	4A-/)	.	8e-/	.
.	.	.	.	.	.	(8a-\L	p
4F\	p	4f\	p	4a-/	p	8dd-\	.
.	.	.	.	.	.	8ff\J)	.
=52	=52	=52	=52	=52	=52	=52	=52
(4G\	f	(4b-\	f	(4dd-\	f	(8.ee-\L	f
.	.	.	.	.	.	16ff\Jk)	.
4A-\)	.	4a-\)	.	8cc\)	.	8ee-\	.
.	.	.	.	(32a-/LLLxx	p	(32ccc\LLL	p
.	.	.	.	32g/	.	32bb-\	.
.	.	.	.	32a-/	.	32ccc\	.
.	.	.	.	32b-/JJJ)	.	32ddd-\JJJ)	.
4r	.	4r	.	16cc'\LL	.	16eee-'\LL	.
.	.	.	.	16cc'\	.	16eee-'\	.
.	.	.	.	16cc'\	.	16eee-'\	.
.	.	.	.	16cc'\JJ	.	16eee-'\JJ	.
=53	=53	=53	=53	=53	=53	=53	=53
2.AA-/	p	2.A-/	p	(8cc/L	.	(8eee-\L	.
.	.	.	.	8b-/	.	8ddd-\	.
.	.	.	.	8a-/	.	8ccc\	.
.	.	.	.	8g-/	.	8bb-\	.
.	.	.	.	8f/	.	8aa-\	.
.	.	.	.	8e-/J)	.	8gg-\J)	.
=54	=54	=54	=54	=54	=54	=54	=54
! cresc.	!	! cresc.	!	! cresc.	!	! cresc.	!
(8D-\L	.	(8A-\L	.	8d-/	.	(8ff\L	.
8E-\	.	8c\	.	(4a-/	.	8ee-\	.
8F\	.	8d-\	.	.	.	8dd-\	.
8E-\	.	8e-\	.	8g-/L	.	8cc\	.
8D-\	.	8d-\	.	8f/	.	8b-\	.
8C\J)	.	8g-\J)	.	8e-/J)	.	8an\J)	.
=55	=55	=55	=55	=55	=55	=55	=55
8D-/L	f	8f\L	f	(16f/LL	f	(16b-\LL	f
.	.	.	.	16a-/	.	16ff\	.
8D-/	.	8B-\J	.	16f/	.	16dd-\	.
.	.	.	.	16d-/JJ)	.	16b-\JJ)	.
8E-/	.	4e-\	.	(8c/L	.	(4a-/	.
8E-/	.	.	.	8e-/J)	.	.	.
!	!	!	!	! 16e-P/	!	!	!
8EE-/	.	4E-/	.	(8d-p/L	.	4g/)	.
8EE-/J	.	.	.	16c/L	.	.	.
.	.	.	.	16B-/JJ)	.	.	.
=56	=56	=56	=56	=56	=56	=56	=56
8AA-/L	p	4c\	.	4A-/	.	4a-/	.
8AA-/	.	.	.	.	.	.	.
8AA-/	.	4r	.	(8f/Lxx	p	(8aa-\L	p
8AA-/	.	.	.	16e-/Jk)	.	16gg\Jk)	.
.	.	.	.	16r	.	16r	.
8AA-/	.	4r	.	(8d-/L	.	(8ff\L	.
8AA-/J	.	.	.	16c/Jk)	.	16ee-\Jk)	.
.	.	.	.	16r	.	16r	.
=57	=57	=57	=57	=57	=57	=57	=57
8E-\L	.	2.r	.	(8B-/L	.	(8dd-\L	.
8E-\	.	.	.	16A-/Jk)	.	16cc\Jk)	.
.	.	.	.	16r	.	16r	.
8E-\	.	.	.	(8G/L	.	(8b-\L	.
8E-\	.	.	.	16A-/Jk)	.	16cc\Jk)	.
.	.	.	.	16r	.	16r	.
8E-\	.	.	.	(8B-/L	.	(8dd-\L	.
8E-\J	.	.	.	16c/Jk)	.	16ee-\Jk)	.
.	.	.	.	16r	.	16r	.
=58	=58	=58	=58	=58	=58	=58	=58
8AA-/L	.	4r	.	(8G/L	.	(8bn\L	.
8AA-/	.	.	.	16A-/Jk)	.	16cc\Jk)	.
.	.	.	.	16r	.	16r	.
8AA-/	.	(8a-\Lxx	p	(8f/L	.	(8aa-\L	.
8AA-/	.	16gn\Jk)	.	16e-/Jk)	.	16gg\Jk)	.
.	.	16r	.	16r	.	16r	.
8AA-/	.	(8f\L	.	(8d-/L	.	(8ff\L	.
8AA-/J	.	16e-\Jk)	.	16c/Jk)	.	16ee-\Jk)	.
.	.	16r	.	16r	.	16r	.
=59	=59	=59	=59	=59	=59	=59	=59
8EE-/L	.	(8d-\L	.	(8B-/L	.	(8dd-\L	.
8EE-/	.	16c\Jk)	.	16A-/Jk)	.	16cc\Jk)	.
.	.	16r	.	16r	.	16r	.
8EE-/	.	(8B-/L	.	(8G/L	.	(8b-\L	.
8EE-/	.	16c/Jk)	.	16A-/Jk)	.	16cc\Jk)	.
.	.	16r	.	16r	.	16r	.
8EE-/	.	(8d-\L	.	(8B-/L	.	(8dd-\L	.
8EE-/J	.	16B-\Jk)	.	16G/Jk)	.	16b-\Jk)	.
.	.	16r	.	16r	.	16r	.
=60	=60	=60	=60	=60	=60	=60	=60
4AA-/	.	[2.A-/	.	8A-/	.	8a-/	.
.	.	.	.	(4c/	.	(4e-/	.
4AA-/	.	.	.	.	.	.	.
.	.	.	.	8d-/L	.	8f/L	.
4AA-/	.	.	.	8c/	.	8e-/	.
.	.	.	.	8B-/J)	.	8d-/J)	.
=61	=61	=61	=61	=61	=61	=61	=61
4AA-/	.	8A-/]	.	8A-/	.	8c/	.
.	.	(4E-/	.	4A-/	.	(4c/	.
4AA-/	.	.	.	.	.	.	.
.	.	8F/L	.	4A-/	.	8d-/L	.
4AA-/	.	8E-/	.	.	.	8c/	.
.	.	8D-/J)	.	8G/	.	8B-/J)	.
=62	=62	=62	=62	=62	=62	=62	=62
[2AA-/	.	(2D-/	.	(2G/	.	(2B-/	.
8AA-/]	.	8C/)	.	8A-/)	.	8A-/)	.
8r	.	8r	.	8r	.	8r	.
==:|!	==:|!	==:|!	==:|!	==:|!	==:|!	==:|!	==:|!
*-	*-	*-	*-	*-	*-	*-	*-
!!!RWG: Appoggiaturas of spine 'Violino 1' need manual editing in measures: 8, 8, 10, 38, 39, 40, 49
!!!RWG: Appoggiaturas of spine 'Violino 2' need manual editing in measures: 49, 55
!!!RWG: Appoggiaturas of spine 'Viola' need manual editing in measures: 8, 10
!!!RWG: Key is interpreted using the Humdrum key tool.
!!!AFT: stage2
!!!END: 1994/06/29
!!!KEY: 1155094300
!!!EMD: Converted from MuseData to Humdrum Dec 16, 2000, by Andreas Kornstaedt using muse2kern.
!!!EMD: Manual editing by Craig Sapp, Nov 2001
